X: 4275
M: C|
L: 1/8
K: A
(cd) |\
   ecea fagf | ecea fagf |\
[1 efec decB | cdcA B2 :|\
[2 gbge faf^d | e2g2e2 |:\
(cB) |\
f2B2 B2(B^A) |\
ecag fedc | dBbagfed |\
cecA BdBG | A2c2A2 :|


